X: 1
T: Copland's
M: 4/4
L: 1/8
R: barndance
K: Gmaj
|:g2 ~g2 g2 de|gedB AG Bd|g2 b2 g2 dc|BGAc BG G2:|
BGBG dcBA|AGAB cBAG|BGBG dcBA|AGAc BG G2|
